static/assets/images/exchanges/lbank.svg

<svg width="201" height="256" viewBox="0 0 201 256" fill="none" xmlns="http://www.w3.org/2000/svg">
<path fill-rule="evenodd" clip-rule="evenodd" d="M1.84744 247.617C0.179683 244.331 0.179688 240.025 0.179688 231.423V24.5759C0.179688 15.9744 0.179683 11.6736 1.84744 8.39108C3.31335 5.50235 5.65655 3.15151 8.54126 1.67539C11.8199 1.28152e-05 16.1116 0 24.6923 0H104.864C126.229 0 136.916 -1.47701e-05 145.685 2.35802C169.471 8.74663 188.056 27.3749 194.431 51.2312C196.776 60.0205 196.776 70.7355 196.776 92.1598V92.1654C196.776 106.112 190.475 111.223 185.102 115.575C181.112 118.809 177.631 121.634 177.631 127.365C177.631 133.014 181.686 135.833 186.388 139.11C192.877 143.627 200.607 149.003 200.607 163.845C200.607 185.233 200.607 195.931 198.267 204.703C191.898 228.576 173.308 247.221 149.504 253.61C140.752 255.962 130.088 255.968 108.752 255.971L24.698 255.999C16.1145 256.005 11.8255 256.005 8.54695 254.33C5.66102 252.855 3.31596 250.505 1.84744 247.617ZM114.45 83.9479C119.259 76.3732 123.426 69.8196 123.426 61.4399C123.426 44.4756 109.68 30.7199 92.7261 30.7199C75.7668 30.7199 62.0205 45.1213 62.0205 61.4399C62.0205 69.8196 66.3009 76.3732 71.2416 83.9479C78.0065 94.2988 86.0067 106.561 86.0067 128.005C86.0067 149.444 78.0065 161.706 71.2416 172.066C66.3009 179.632 62.0205 186.186 62.0205 194.565C62.0205 211.529 75.7667 225.285 92.7289 225.285C109.68 225.285 123.426 211.529 123.426 194.565C123.426 186.186 119.259 179.632 114.45 172.066C107.867 161.706 100.08 149.444 100.08 128.005C100.08 106.558 107.867 94.2988 114.452 83.945L114.45 83.9479Z" fill="#FFD634"/>
</svg>

<svg xmlns="http://www.w3.org/2000/svg" fill="none" viewBox="0 0 201 256"><path fill="#FFD634" fill-rule="evenodd" d="M1.847 247.617C.18 244.331.18 240.025.18 231.423V24.576c0-8.602 0-12.902 1.667-16.185a15.34 15.34 0 0 1 6.694-6.716C11.82 0 16.111 0 24.692 0h80.172c21.365 0 32.052 0 40.821 2.358 23.786 6.389 42.371 25.017 48.746 48.873 2.345 8.79 2.345 19.505 2.345 40.929v.005c0 13.947-6.301 19.058-11.674 23.41-3.99 3.234-7.471 6.059-7.471 11.79 0 5.649 4.055 8.468 8.757 11.745 6.489 4.517 14.219 9.893 14.219 24.735 0 21.388 0 32.086-2.34 40.858-6.369 23.873-24.959 42.518-48.763 48.907-8.752 2.352-19.416 2.358-40.752 2.361l-84.054.028c-8.583.006-12.872.006-16.151-1.669a15.36 15.36 0 0 1-6.7-6.713M114.45 83.947c4.809-7.574 8.976-14.127 8.976-22.507 0-16.964-13.746-30.72-30.7-30.72-16.96 0-30.705 14.401-30.705 30.72 0 8.38 4.28 14.933 9.22 22.508 6.766 10.35 14.766 22.613 14.766 44.057 0 21.439-8 33.701-14.765 44.061-4.941 7.566-9.222 14.12-9.222 22.499 0 16.964 13.747 30.72 30.709 30.72 16.951 0 30.697-13.756 30.697-30.72 0-8.379-4.167-14.933-8.976-22.499-6.583-10.36-14.37-22.622-14.37-44.061 0-21.447 7.787-33.706 14.372-44.06z" clip-rule="evenodd"/></svg>
